assets/National park/Flat/national_park_flat.svg

<svg width="32" height="32" viewBox="0 0 32 32" fill="none" xmlns="http://www.w3.org/2000/svg">
<path d="M26.8702 1.99365H5.16024C3.42024 1.99365 2.00024 3.40365 2.00024 5.15365V26.8437C2.00024 28.5837 3.41024 30.0037 5.16024 30.0037H26.8702C28.6102 30.0037 30.0302 28.5937 30.0302 26.8437V5.14365C30.0302 3.40365 28.6102 1.99365 26.8702 1.99365Z" fill="#26C9FC"/>
<path d="M8.81017 13.7537C10.4008 13.7537 11.6902 12.4642 11.6902 10.8737C11.6902 9.28307 10.4008 7.99365 8.81017 7.99365C7.21959 7.99365 5.93018 9.28307 5.93018 10.8737C5.93018 12.4642 7.21959 13.7537 8.81017 13.7537Z" fill="#D3D3D3"/>
<path d="M6.01025 19.2636C4.29541 19.2636 2.80044 18.3348 2.00024 16.952V12.3152C2.80044 10.9324 4.29541 10.0036 6.01025 10.0036C6.82578 10.0036 7.59551 10.2174 8.26283 10.5907C9.03094 11.0203 9.54497 10.8209 10.0279 10.0717C11.0892 8.42504 12.9354 7.33362 15.0403 7.33362C17.8 7.33362 20.1235 9.21235 20.8008 11.7657C20.8438 11.7643 20.887 11.7637 20.9303 11.7637C20.9586 11.7637 20.9869 11.7639 21.0151 11.7645C21.4138 10.9133 22.2782 10.3237 23.2803 10.3237C23.9962 10.3237 24.6418 10.6246 25.0976 11.1068C25.6609 10.5124 26.364 10.0521 27.1541 9.77803C27.9863 9.27994 28.9599 8.99365 30.0003 8.99365L30.0302 8.99373V20.0936L30.0003 20.0937C29.4369 20.0937 28.8932 20.0097 28.3808 19.8537H21.0103C19.8056 19.8537 18.7247 19.3236 17.9879 18.4841C17.1184 18.9801 16.1123 19.2636 15.0403 19.2636H6.01025Z" fill="#E6E6E6"/>
<path d="M23.8302 6.01359L30.0302 12.2136V17.0195H29.9837L5.34025 24.5036C4.56025 23.7236 4.56025 22.4436 5.34025 21.6636L6.44651 20.3553L2.00024 17.0077V15.1369C2.08445 15.0751 2.16465 15.0073 2.24012 14.9337L4.59012 12.5837C5.37012 11.8037 6.65012 11.8037 7.43012 12.5837L10.4579 15.6114L10.9802 14.9936L15.3302 9.77359C15.7402 9.28359 16.3503 8.99359 16.9903 8.99359H17.1103C17.6803 8.99359 18.2303 8.76359 18.6403 8.36359L20.9902 6.01359C21.7703 5.23359 23.0502 5.23359 23.8302 6.01359Z" fill="#635994"/>
<path d="M25.437 18.4004L20.8803 13.8437C20.2803 13.2437 19.4603 12.9037 18.6103 12.9037C17.6803 12.9037 16.9303 12.1537 16.9303 11.2237V8.99444C16.9502 8.99387 16.9702 8.99359 16.9903 8.99359H17.1103C17.6803 8.99359 18.2303 8.76359 18.6403 8.36359L20.9902 6.01359C21.7703 5.23359 23.0502 5.23359 23.8302 6.01359L30.0302 12.2136V17.0195H29.9837L25.437 18.4004Z" fill="#433B6B"/>
<path d="M3.46028 16.3037L4.39028 14.3737C4.63028 13.8737 5.34028 13.8637 5.60028 14.3637L6.60028 16.2937C6.72384 16.5355 6.68577 16.8003 6.54655 16.9937H14.4136C14.1173 16.989 13.9212 16.6717 14.0503 16.4037L14.6203 15.2137C14.7703 14.9137 15.2003 14.9037 15.3703 15.2037L15.9803 16.3937C16.1192 16.6617 15.9232 16.9889 15.617 16.9937H25.7774C25.594 16.8287 25.5184 16.5539 25.6403 16.3037L26.4503 14.6237C26.6603 14.1837 27.2703 14.1737 27.5003 14.6037L28.3703 16.2837C28.5001 16.5368 28.4278 16.8235 28.2408 16.9937H30.0303V21.5748H2V16.9937H3.51977C3.38202 16.8034 3.343 16.5436 3.46028 16.3037Z" fill="#00F397"/>
<path d="M30.0302 21.0902C25.4632 20.3684 20.7806 19.9935 16.0101 19.9935C11.2435 19.9945 6.56433 20.3691 2.00024 21.0896V26.8437C2.00024 28.5837 3.41024 30.0037 5.16024 30.0037H26.8702C28.6102 30.0037 30.0302 28.5937 30.0302 26.8437V21.0902Z" fill="#00A6ED"/>
</svg>

<svg xmlns="http://www.w3.org/2000/svg" width="32" height="32" fill="none"><path fill="#26C9FC" d="M26.87 1.994H5.16A3.16 3.16 0 0 0 2 5.154v21.69a3.16 3.16 0 0 0 3.16 3.16h21.71a3.16 3.16 0 0 0 3.16-3.16v-21.7c0-1.74-1.42-3.15-3.16-3.15Z"/><path fill="#D3D3D3" d="M8.81 13.754a2.88 2.88 0 1 0 0-5.76 2.88 2.88 0 0 0 0 5.76Z"/><path fill="#E6E6E6" d="M6.01 19.264A4.625 4.625 0 0 1 2 16.952v-4.637a4.625 4.625 0 0 1 6.263-1.724c.768.43 1.282.23 1.765-.52a5.953 5.953 0 0 1 5.012-2.737 5.964 5.964 0 0 1 5.76 4.432 3.981 3.981 0 0 1 .215-.002 2.5 2.5 0 0 1 4.083-.657 5.17 5.17 0 0 1 2.056-1.329A5.524 5.524 0 0 1 30 8.994h.03v11.1H30a5.552 5.552 0 0 1-1.62-.24h-7.37a4.01 4.01 0 0 1-3.022-1.37 5.93 5.93 0 0 1-2.948.78H6.01Z"/><path fill="#635994" d="m23.83 6.014 6.2 6.2v4.806h-.046L5.34 24.504c-.78-.78-.78-2.06 0-2.84l1.107-1.309L2 17.008v-1.871c.084-.062.165-.13.24-.203l2.35-2.35c.78-.78 2.06-.78 2.84 0l3.028 3.027.522-.617 4.35-5.22c.41-.49 1.02-.78 1.66-.78h.12a2.2 2.2 0 0 0 1.53-.63l2.35-2.35c.78-.78 2.06-.78 2.84 0Z"/><path fill="#433B6B" d="m25.437 18.4-4.557-4.556c-.6-.6-1.42-.94-2.27-.94-.93 0-1.68-.75-1.68-1.68v-2.23h.18a2.2 2.2 0 0 0 1.53-.63l2.35-2.35c.78-.78 2.06-.78 2.84 0l6.2 6.2v4.806h-.046l-4.547 1.38Z"/><path fill="#00F397" d="m3.46 16.304.93-1.93c.24-.5.95-.51 1.21-.01l1 1.93a.668.668 0 0 1-.053.7h7.867a.414.414 0 0 1-.364-.59l.57-1.19c.15-.3.58-.31.75-.01l.61 1.19a.414.414 0 0 1-.363.6h10.16a.58.58 0 0 1-.137-.69l.81-1.68c.21-.44.82-.45 1.05-.02l.87 1.68c.13.253.058.54-.13.71h1.79v4.58H2v-4.58h1.52a.667.667 0 0 1-.06-.69Z"/><path fill="#00A6ED" d="M30.03 21.09a89.765 89.765 0 0 0-14.02-1.096A89.923 89.923 0 0 0 2 21.09v5.754a3.16 3.16 0 0 0 3.16 3.16h21.71a3.16 3.16 0 0 0 3.16-3.16V21.09Z"/></svg>
